icons-rebrand/svg/file-3D-filled.svg

<svg width="32" height="32" viewBox="0 0 32 32" fill="none" xmlns="http://www.w3.org/2000/svg">
<path d="M19.405 13.498L16.019 12.083L12.604 13.501L16 14.916L19.405 13.498ZM15 16.666L11 14.999V20.832L15 22.5V16.666ZM17 16.666V22.5L21 20.833V15L17 16.666Z" fill="#0F0F0F"/>
<path fill-rule="evenodd" clip-rule="evenodd" d="M9 2.5H23C24.1931 2.50132 25.3369 2.97585 26.1805 3.81948C27.0241 4.66311 27.4987 5.80693 27.5 7V25C27.4987 26.1931 27.0241 27.3369 26.1805 28.1805C25.3369 29.0241 24.1931 29.4987 23 29.5H9C7.80693 29.4987 6.66311 29.0241 5.81948 28.1805C4.97585 27.3369 4.50132 26.1931 4.5 25V7C4.50132 5.80693 4.97585 4.66311 5.81948 3.81948C6.66311 2.97585 7.80693 2.50132 9 2.5ZM16.406 10.077L22.386 12.577C22.5677 12.6532 22.7229 12.7813 22.8322 12.9453C22.9414 13.1093 22.9998 13.3019 23 13.499V21.499C22.9999 21.6963 22.9414 21.8892 22.832 22.0535C22.7226 22.2177 22.5671 22.3459 22.385 22.422L16.385 24.922C16.2631 24.9731 16.1322 24.9994 16 24.9994C15.8678 24.9994 15.7369 24.9731 15.615 24.922L9.615 22.422C9.433 22.3461 9.27751 22.218 9.16809 22.054C9.05866 21.8899 9.00018 21.6972 9 21.5V13.5C8.99987 13.3023 9.05831 13.1091 9.16795 12.9446C9.27759 12.7802 9.4335 12.6519 9.616 12.576L15.636 10.076C15.758 10.0252 15.8888 9.999 16.021 9.999C16.1532 9.999 16.284 10.0252 16.406 10.076V10.077Z" fill="#0F0F0F"/>
</svg>

<svg id="Layer_1" data-name="Layer 1" xmlns="http://www.w3.org/2000/svg" viewBox="0 0 32 32"><defs><style>.cls-1,.cls-2{fill:#0f0f0f;}.cls-2{fill-rule:evenodd;}</style></defs><path class="cls-1" d="M19.405,13.5l-3.386-1.415L12.6,13.5,16,14.916ZM15,16.666,11,15v5.833L15,22.5Zm2,0V22.5l4-1.667V15Z"/><path class="cls-2" d="M26.18,3.819A4.5,4.5,0,0,0,23,2.5H9A4.5,4.5,0,0,0,4.5,7V25A4.505,4.505,0,0,0,9,29.5H23A4.507,4.507,0,0,0,27.5,25V7A4.5,4.5,0,0,0,26.18,3.819ZM23,21.5a1,1,0,0,1-.615.923l-6,2.5a1,1,0,0,1-.77,0l-6-2.5A1,1,0,0,1,9,21.5v-8a1,1,0,0,1,.616-.924l6.02-2.5a1,1,0,0,1,.77,0h0l5.98,2.5A1,1,0,0,1,23,13.5Z"/></svg>
